src/images/footer-logo.svg

<svg width="156px" height="28px" viewBox="0 0 156 28" version="1.1" xmlns="http://www.w3.org/2000/svg">
    <g stroke="none" stroke-width="1" fill="none" fill-rule="evenodd">
        <g fill="#A0AEC0" fill-rule="nonzero">
            <path d="M67.8385782,25.5897496 L67.8385782,23.5593555 C67.8385782,23.1469829 67.5042842,22.8126888 67.0919116,22.8126888 L58.2546973,22.8126888 C58.0485109,22.8126888 57.8813639,22.6455418 57.8813639,22.4393555 L57.8813639,14.8835411 C57.8813639,14.6773548 58.0485109,14.5102077 58.2546973,14.5102077 L66.8023641,14.5102077 C67.2147367,14.5102077 67.5490308,14.1759137 67.5490308,13.7635411 L67.5490308,11.733147 C67.5490308,11.3207743 67.2147367,10.9864803 66.8023641,10.9864803 L58.2546973,10.9864803 C58.0485109,10.9864803 57.8813639,10.8193333 57.8813639,10.613147 L57.8813639,5.3903941 C57.8813639,5.18420779 58.0485109,5.01706076 58.2546973,5.01706076 L67.0919116,5.01706076 C67.5042842,5.01706076 67.8385782,4.68276671 67.8385782,4.2703941 L67.8385782,2.24 C67.8385782,1.82762739 67.5042842,1.49333333 67.0919116,1.49333333 L54.88,1.49333333 C54.4676274,1.49333333 54.1333333,1.82762739 54.1333333,2.24 L54.1333333,25.5897496 C54.1333333,26.0021222 54.4676274,26.3364162 54.88,26.3364162 L67.0919116,26.3364162 C67.5042842,26.3364162 67.8385782,26.0021222 67.8385782,25.5897496 Z M75.5182972,25.5897496 L75.5182972,14.0435954 L75.5182972,14.0435954 L77.0485333,14.0435954 C77.4609059,14.0435954 77.7952,13.7093014 77.7952,13.2969288 L77.7952,11.4113454 C77.7952,10.9989728 77.4609059,10.6646787 77.0485333,10.6646787 L75.5182972,10.6646787 L75.5182972,10.6646787 L75.5182972,5.66718695 C75.5182972,5.25481434 75.1840031,4.92052029 74.7716305,4.92052029 L72.645621,4.92052029 C72.2332484,4.92052029 71.8989543,5.25481434 71.8989543,5.66718695 L71.8989543,10.6646787 L71.8989543,10.6646787 L70.3547014,10.6646787 C69.9423288,10.6646787 69.6080347,10.9989728 69.6080347,11.4113454 L69.6080347,13.2969288 C69.6080347,13.7093014 69.9423288,14.0435954 70.3547014,14.0435954 L71.8989543,14.0435954 L71.8989543,14.0435954 L71.8989543,25.5897496 C71.8989543,26.0021222 72.2332484,26.3364162 72.645621,26.3364162 L74.7716305,26.3364162 C75.1840031,26.3364162 75.5182972,26.0021222 75.5182972,25.5897496 Z M83.2971936,25.5897496 L83.2971936,18.7579887 L83.2971936,18.7579887 C83.2971936,16.8271792 83.5492071,15.8382191 84.0532341,15.0444419 C84.5679851,14.2613913 85.4580754,13.4965327 86.7235049,13.4965327 C87.7101109,13.4965327 88.4259365,13.7781091 88.8709816,14.3412619 C89.3160267,14.9044147 89.5385493,15.8135042 89.5385493,17.0685304 L89.5385493,25.5897496 C89.5385493,26.0021222 89.8728433,26.3364162 90.285216,26.3364162 L92.4112255,26.3364162 C92.8235981,26.3364162 93.1578921,26.0021222 93.1578921,25.5897496 L93.1578921,16.7306387 L93.1578921,16.7306387 C93.1578921,14.5423879 92.707485,12.94947 91.8066708,11.9518851 C90.7449969,10.8041261 89.3294317,10.2302466 87.5599752,10.2302466 C86.0049983,10.2302466 84.5840711,10.8094894 83.2971936,11.9679752 L83.2971936,5.66747179 C83.2971936,5.25509918 82.9628996,4.92080513 82.550527,4.92080513 L80.4245175,4.92080513 C80.0121448,4.92080513 79.6778508,5.25509918 79.6778508,5.66747179 L79.6778508,25.5897496 C79.6778508,26.0021222 80.0121448,26.3364162 80.4245175,26.3364162 L82.550527,26.3364162 C82.9628996,26.3364162 83.2971936,26.0021222 83.2971936,25.5897496 Z M102.606373,26.7869385 C103.421396,26.7869385 104.177436,26.7011247 104.874495,26.5294972 C105.571553,26.3578697 106.220354,26.08702 106.820897,25.7169482 C107.42144,25.3468763 107.984449,24.8749007 108.509924,24.3010212 C108.762307,24.0253893 109.008506,23.7231566 109.24852,23.3943234 C109.337708,23.2721306 109.447946,23.1102011 109.579234,22.9085348 C109.804175,22.5629411 109.70641,22.1004219 109.360838,21.8754483 C109.346633,21.866201 109.332118,21.8574401 109.317317,21.8491808 L107.545231,20.8602907 C107.209824,20.6730885 106.787117,20.7709224 106.568041,21.0864361 C106.285487,21.4933725 106.067264,21.7898714 105.913373,21.9759328 C105.578597,22.380693 105.264476,22.6917918 104.971011,22.9092293 C104.381192,23.3382981 103.635875,23.5528325 102.735061,23.5528325 C101.576871,23.5528325 100.627799,23.1773973 99.8878446,22.4265269 C99.5566328,22.0856276 99.2898792,21.6920739 99.087584,21.2458658 C98.9497696,20.9418848 98.8222066,20.4570645 98.704895,19.7914047 C98.6691588,19.5883645 98.8047427,19.394768 99.007775,19.3589869 C99.0291648,19.3552173 99.0508429,19.3533217 99.0725624,19.3533217 L109.12843,19.3533217 C109.535313,19.3533217 109.86729,19.0275482 109.874964,18.620737 L109.877231,18.5005475 L109.877231,18.5005475 C109.877231,15.915408 109.212344,13.8934213 107.882571,12.4345875 C106.542073,10.9650269 104.718997,10.2302466 102.413342,10.2302466 C100.129134,10.2302466 98.2953337,10.9864803 96.9119405,12.4989478 C95.5392712,14.0328687 94.8529366,16.0387653 94.8529366,18.5166375 C94.8529366,21.0159632 95.5607192,23.0218598 96.9762844,24.5343273 C98.3918496,26.0360681 100.268546,26.7869385 102.606373,26.7869385 Z M99.0378241,15.8911189 C99.0592509,15.8325646 99.0791712,15.7819184 99.097585,15.7391804 C99.1819933,15.5432701 99.2791915,15.3588737 99.3891796,15.1859911 C99.6143831,14.8320093 99.8851636,14.5289795 100.201521,14.2769016 C100.517878,14.0248237 100.869089,13.8317427 101.255152,13.6976587 C101.641215,13.5635747 102.054088,13.4965327 102.493771,13.4965327 C104.18348,13.4965327 105.326747,14.2362679 105.923571,15.7157382 C105.943762,15.7657907 105.966144,15.8266671 105.990717,15.8983673 C106.057575,16.093419 105.953642,16.3057336 105.758587,16.3725818 C105.719629,16.3859333 105.67873,16.392747 105.637548,16.392747 L99.3884221,16.392747 C99.1822352,16.392748 99.0150878,16.2256006 99.0150878,16.0194137 C99.0150878,15.9756467 99.0227837,15.9322205 99.0378241,15.8911189 Z M115.288134,25.5897496 L115.288134,18.210926 L115.288134,18.210926 C115.288134,15.2288979 116.27474,13.7378839 118.247952,13.7378839 C118.630082,13.7378839 119.017701,13.8220709 119.410809,13.9904449 C119.466074,14.0141158 119.529768,14.0450363 119.601893,14.0832066 C119.966371,14.2761348 120.418227,14.1370317 120.611127,13.772539 C120.61383,13.7674326 120.616473,13.762295 120.619056,13.7571272 L121.590079,11.8145859 C121.774417,11.4457315 121.624877,10.9972669 121.25604,10.8128952 C121.255712,10.8127313 121.255384,10.8125677 121.255056,10.8124043 C121.135369,10.7527961 121.033228,10.7051741 120.948633,10.6695385 C120.253418,10.3766772 119.578394,10.2302466 118.923563,10.2302466 C118.205056,10.2302466 117.583065,10.3643306 117.05759,10.6324985 C116.542839,10.8899398 115.953021,11.3672788 115.288134,12.0645156 L115.288134,11.4113454 C115.288134,10.9989728 114.95384,10.6646787 114.541467,10.6646787 L112.415458,10.6646787 C112.003085,10.6646787 111.668791,10.9989728 111.668791,11.4113454 L111.668791,25.5897496 C111.668791,26.0021222 112.003085,26.3364162 112.415458,26.3364162 L114.541467,26.3364162 C114.95384,26.3364162 115.288134,26.0021222 115.288134,25.5897496 Z M127.095235,25.5897496 L127.095235,18.7740788 L127.095235,18.7740788 C127.095235,16.8218158 127.341886,15.8274924 127.835189,15.0444419 C128.339216,14.2506646 129.191772,13.4804426 130.392858,13.4804426 C131.497428,13.4804426 132.25883,13.7807908 132.677066,14.3814871 C133.106025,14.9714567 133.320504,16.0387653 133.320504,17.5834129 L133.320504,25.5897496 C133.320504,26.0021222 133.654798,26.3364162 134.067171,26.3364162 L136.209266,26.3364162 C136.621639,26.3364162 136.955933,26.0021222 136.955933,25.5897496 L136.955933,16.7306387 L136.955933,16.7306387 C136.955933,14.5209344 136.51625,12.9280166 135.636884,11.9518851 C134.618106,10.8041261 133.197178,10.2302466 131.374102,10.2302466 C129.786953,10.2302466 128.360664,10.8577597 127.095235,12.1127859 L127.095235,11.4113454 C127.095235,10.9989728 126.76094,10.6646787 126.348568,10.6646787 L124.206472,10.6646787 C123.7941,10.6646787 123.459806,10.9989728 123.459806,11.4113454 L123.459806,25.5897496 C123.459806,26.0021222 123.7941,26.3364162 124.206472,26.3364162 L126.348568,26.3364162 C126.76094,26.3364162 127.095235,26.0021222 127.095235,25.5897496 Z M146.4882,26.7869385 C148.204037,26.7869385 149.807271,26.0897017 151.297905,24.6952281 L151.297905,25.5897496 C151.297905,26.0021222 151.632199,26.3364162 152.044571,26.3364162 L154.186667,26.3364162 C154.599039,26.3364162 154.933333,26.0021222 154.933333,25.5897496 L154.933333,11.4113454 C154.933333,10.9989728 154.599039,10.6646787 154.186667,10.6646787 L152.044571,10.6646787 C151.632199,10.6646787 151.297905,10.9989728 151.297905,11.4113454 L151.297905,12.4828577 L151.297905,12.4828577 C149.850167,10.9811169 148.214761,10.2302466 146.391684,10.2302466 C144.27906,10.2302466 142.520328,11.0132971 141.115487,12.5793982 C139.710645,14.1454993 139.008225,16.1031256 139.008225,18.4522772 C139.008225,20.8443357 139.710645,22.8395056 141.115487,24.4377868 C142.531052,26.0038879 144.321956,26.7869385 146.4882,26.7869385 Z M146.66179,23.5528325 C145.407084,23.5528325 144.366858,23.0754934 143.541112,22.1208154 C142.736813,21.176864 142.334664,19.954018 142.334664,18.4522772 C142.334664,17.0470769 142.747537,15.8671378 143.573284,14.9124597 C144.409754,13.9685084 145.44998,13.4965327 146.693962,13.4965327 C148.013011,13.4965327 149.085409,13.963145 149.911155,14.8963696 C150.736902,15.8510477 151.149775,17.063167 151.149775,18.5327276 C151.149775,20.0022882 150.736902,21.2144076 149.911155,22.1690856 C149.085409,23.0915835 148.002287,23.5528325 146.66179,23.5528325 Z"></path>
            <path d="M36.7899667,3.5249581e-15 L36.7899667,5.1651358 L28.2674926,13.6876099 C28.135833,13.8192695 28.1257053,14.0264395 28.2371096,14.1697161 L28.2674926,14.2041235 L36.7899667,22.7265975 L36.7899667,27.8919865 L25.52256,16.62416 L14.4739663,27.6732929 C14.1977218,27.9495374 13.7588743,27.9640766 13.4655137,27.7169105 L13.4180202,27.6732929 L0.218693603,14.4739663 C-0.0575509483,14.1977218 -0.0720901352,13.7588743 0.175076043,13.4655137 L0.218693603,13.4180202 L13.4180202,0.218693603 C13.6942647,-0.0575509483 14.1331122,-0.0720901352 14.4264728,0.175076043 L14.4739663,0.218693603 L25.52256,11.2672 L36.7899667,3.5249581e-15 Z M37.9088539,3.37230244e-14 L51.338207,13.4293531 C51.6084557,13.6996018 51.6226793,14.1289242 51.3808778,14.4159176 L51.338207,14.4623802 L37.9088539,27.8917333 L37.9088539,22.7265975 L46.4313279,14.2041235 C46.5629876,14.0724638 46.5731153,13.8652939 46.4617109,13.7220172 L46.4313279,13.6876099 L37.9088539,5.1651358 L37.9088539,3.37230244e-14 Z M14.2099798,5.2344377 C14.0753991,5.09985703 13.8636328,5.08950467 13.7171775,5.20338062 L13.6820067,5.2344377 L5.2344377,13.6820067 C5.09985703,13.8165874 5.08950467,14.0283537 5.20338062,14.174809 L5.2344377,14.2099798 L13.6820067,22.6575488 C13.8165874,22.7921295 14.0283537,22.8024818 14.174809,22.6886059 L14.2099798,22.6575488 L22.6575488,14.2099798 C22.7921295,14.0753991 22.8024818,13.8636328 22.6886059,13.7171775 L22.6575488,13.6820067 L14.2099798,5.2344377 Z"></path>
            <path d="M44.9819833,14.2218039 L37.9088539,21.2949333 L37.9088539,6.72 L44.9819833,13.7931294 C45.1003585,13.9115046 45.1003585,14.1034287 44.9819833,14.2218039 Z"></path>
        </g>
    </g>
</svg>

<svg xmlns="http://www.w3.org/2000/svg" viewBox="0 0 156 28">
  <g fill="#A0AEC0" fill-rule="nonzero">
    <path
      d="M67.839 25.59v-2.03a.747.747 0 00-.747-.747h-8.837a.373.373 0 01-.374-.374v-7.555c0-.207.168-.374.374-.374h8.547a.747.747 0 00.747-.746v-2.03a.747.747 0 00-.747-.748h-8.547a.373.373 0 01-.374-.373V5.39c0-.206.168-.373.374-.373h8.837a.747.747 0 00.747-.747V2.24a.747.747 0 00-.747-.747H54.88a.747.747 0 00-.747.747v23.35c0 .412.335.746.747.746h12.212a.747.747 0 00.747-.746zm7.68 0V14.044h1.53a.747.747 0 00.746-.747V11.41a.747.747 0 00-.746-.746h-1.53V5.667a.747.747 0 00-.747-.746h-2.126a.747.747 0 00-.747.746v4.998h-1.544a.747.747 0 00-.747.746v1.886c0 .412.334.747.747.747h1.544V25.59c0 .412.334.746.747.746h2.126a.747.747 0 00.746-.746zm7.778 0v-6.832c0-1.93.252-2.92.756-3.714.515-.783 1.405-1.547 2.67-1.547.987 0 1.703.281 2.148.844.445.563.668 1.473.668 2.728v8.52c0 .413.334.747.746.747h2.126a.747.747 0 00.747-.746v-8.86c0-2.188-.45-3.78-1.351-4.778-1.062-1.148-2.478-1.722-4.247-1.722-1.555 0-2.976.58-4.263 1.738v-6.3a.747.747 0 00-.746-.747h-2.126a.747.747 0 00-.747.746V25.59c0 .412.334.746.747.746h2.126a.747.747 0 00.746-.746zm19.31 1.197c.814 0 1.57-.086 2.267-.258a6.772 6.772 0 001.947-.812c.6-.37 1.163-.842 1.689-1.416a10.558 10.558 0 001.07-1.392.747.747 0 00-.263-1.06l-1.772-.989a.747.747 0 00-.977.226c-.283.407-.5.704-.655.89-.334.405-.649.716-.942.933-.59.43-1.335.644-2.236.644-1.158 0-2.107-.376-2.847-1.126a4.12 4.12 0 01-.8-1.181c-.138-.304-.266-.789-.383-1.455a.373.373 0 01.368-.438h10.055a.747.747 0 00.747-.732l.002-.12c0-2.586-.665-4.608-1.994-6.066-1.34-1.47-3.164-2.205-5.47-2.205-2.284 0-4.118.756-5.501 2.269-1.373 1.534-2.06 3.54-2.06 6.018 0 2.499.709 4.505 2.124 6.017 1.416 1.502 3.293 2.253 5.63 2.253zm-3.57-10.896a3.912 3.912 0 01.351-.705c.226-.354.497-.657.814-.91a3.544 3.544 0 011.053-.578 3.75 3.75 0 011.239-.201c1.69 0 2.833.74 3.43 2.219.02.05.042.11.067.182a.373.373 0 01-.353.495h-6.25a.373.373 0 01-.35-.502zm16.251 9.699v-7.38c0-2.981.987-4.472 2.96-4.472a2.938 2.938 0 011.354.345.747.747 0 001.017-.326l.971-1.942a.747.747 0 00-.335-1.003 5.477 5.477 0 00-.306-.142c-.696-.293-1.37-.44-2.025-.44-.719 0-1.34.134-1.866.402-.515.258-1.105.735-1.77 1.433v-.654a.747.747 0 00-.747-.746h-2.126a.747.747 0 00-.746.746V25.59c0 .412.334.746.746.746h2.126a.747.747 0 00.747-.746zm11.807 0v-6.816c0-1.952.247-2.947.74-3.73.504-.793 1.357-1.564 2.558-1.564 1.104 0 1.866.3 2.284.901.429.59.644 1.658.644 3.202v8.007c0 .412.334.746.746.746h2.142a.747.747 0 00.747-.746v-8.86c0-2.21-.44-3.802-1.32-4.778-1.018-1.148-2.439-1.722-4.262-1.722-1.587 0-3.013.628-4.279 1.883v-.702a.747.747 0 00-.746-.746h-2.143a.747.747 0 00-.746.746V25.59c0 .412.334.746.746.746h2.143a.747.747 0 00.746-.746zm19.393 1.197c1.716 0 3.32-.697 4.81-2.092v.895c0 .412.334.746.747.746h2.142a.747.747 0 00.746-.746V11.41a.747.747 0 00-.746-.746h-2.142a.747.747 0 00-.747.746v1.072c-1.448-1.502-3.083-2.253-4.906-2.253-2.113 0-3.872.783-5.277 2.35-1.404 1.565-2.107 3.523-2.107 5.872 0 2.392.703 4.388 2.107 5.986 1.416 1.566 3.207 2.349 5.373 2.349zm.174-3.234c-1.255 0-2.295-.478-3.12-1.432-.805-.944-1.207-2.167-1.207-3.669 0-1.405.413-2.585 1.238-3.54.837-.943 1.877-1.415 3.121-1.415 1.319 0 2.391.466 3.217 1.4.826.954 1.239 2.166 1.239 3.636 0 1.47-.413 2.681-1.239 3.636-.826.923-1.909 1.384-3.25 1.384zM36.79 0v5.165l-8.523 8.523a.365.365 0 00-.03.482l.03.034 8.523 8.523v5.165L25.523 16.624l-11.049 11.05a.747.747 0 01-1.008.043l-.048-.044-13.2-13.199a.747.747 0 01-.043-1.008l.044-.048L13.418.218a.747.747 0 011.008-.043l.048.044 11.049 11.048L36.79 0zm1.119 0l13.43 13.43c.27.27.284.699.042.986l-.043.046-13.43 13.43v-5.165l8.523-8.523a.365.365 0 00.03-.482l-.03-.034-8.522-8.523V0zM14.21 5.234a.373.373 0 00-.493-.03l-.035.03-8.448 8.448a.373.373 0 00-.03.493l.03.035 8.448 8.448a.373.373 0 00.493.03l.035-.03 8.448-8.448a.373.373 0 00.03-.493l-.03-.035-8.448-8.448z" />
    <path d="M44.982 14.222l-7.073 7.073V6.72l7.073 7.073a.303.303 0 010 .429z" />
  </g>
</svg>
